services/marketing/public/socketkit-icon.svg

<svg height="200" viewBox="0 0 200 200" width="200" xmlns="http://www.w3.org/2000/svg" xmlns:xlink="http://www.w3.org/1999/xlink"><defs><circle id="a" cx="100" cy="100" r="100"/><mask id="b" fill="#fff"><use fill="#fff" fill-rule="evenodd" xlink:href="#a"/></mask></defs><g fill="none" fill-rule="evenodd"><use fill="#fb923c" fill-rule="nonzero" xlink:href="#a"/><path d="m102.222222 0h97.777778v200h-97.777778z" fill="#f97316" fill-rule="nonzero" mask="url(#b)"/><path d="m84.392 36.244c6.0666667-2.7872444 12.0102222-4.3408 17.830222-4.6604889v26.3227111c-2.9759998.4493334-6.0319998 1.2364445-9.1688887 2.3608889-5.7742222 2.0697778-11.4395555 5.8831111-16.9955555 11.4391111-9.3693334 9.3697778-11.2217778 16.8871111-5.5564445 22.552 2.5057778 2.5057778 5.1751111 3.3231111 8.0075556 2.4515556 2.7235555-.9804445 5.992-2.8328889 9.8053333-5.5564445l15.5248888-11.276c4.357778-3.2684444 8.770222-5.9373333 13.236889-8.0075555 4.358222-2.1791111 8.716-3.4862222 13.073778-3.9222222 4.466666-.5444445 8.824889-.1088889 13.073778 1.3075555 4.248888 1.4164445 8.388888 4.14 12.42 8.1711111 8.824444 8.8244445 12.365333 19.2288889 10.622222 31.2133338-1.634222 11.875111-8.716 24.076888-21.244889 36.605777-9.369333 9.369778-18.956445 16.124445-28.761778 20.264445-4.841778 2.012889-9.520889 3.346666-14.036889 4.001333v-27.048444c2.644-.496889 5.252889-1.203556 7.826667-2.119556 6.428-2.505778 12.474667-6.591555 18.14-12.256889 4.793333-4.793333 7.844-9.260444 9.151555-13.400444 1.198223-4.248889.272-7.898667-2.778222-10.948889-2.396889-2.396889-4.957333-3.104889-7.680889-2.124445-2.832444.871556-6.155555 2.668889-9.968444 5.392889l-15.688445 11.439111c-4.3577773 3.268445-8.7159996 5.992-13.0737773 8.171112-4.4666667 2.070222-8.8791111 3.323111-13.2368889 3.758666-4.3577778.436-8.6613334-.054222-12.9102222-1.470666-4.2488889-1.416445-8.3888889-4.14-12.42-8.171112-8.8246223-8.824888-12.3654223-19.12-10.6222667-30.8862218 1.7431555-11.7662222 8.7156-23.7506666 20.9178222-35.9524444 8.28-8.28 16.4511111-14.1631111 24.5128889-17.6497778z" fill="#fff" mask="url(#b)"/></g></svg>

<?xml version="1.0" encoding="UTF-8"?>
<svg width="200px" height="200px" viewBox="0 0 200 200" version="1.1" xmlns="http://www.w3.org/2000/svg" xmlns:xlink="http://www.w3.org/1999/xlink">
    <title>logo-socketkit-icon</title>
    <defs>
        <circle id="path-1" cx="100" cy="100" r="100"></circle>
    </defs>
    <g id="Page-1" stroke="none" stroke-width="1" fill="none" fill-rule="evenodd">
        <g id="SocketKit_Identity_1.1_Icons" transform="translate(-370.000000, -281.000000)">
            <g id="logo-socketkit-icon" transform="translate(370.000000, 281.000000)">
                <mask id="mask-2" fill="white">
                    <use xlink:href="#path-1"></use>
                </mask>
                <use id="Oval" fill="#FB923C" fill-rule="nonzero" xlink:href="#path-1"></use>
                <rect id="Rectangle" fill="#F97316" fill-rule="nonzero" mask="url(#mask-2)" x="102.222222" y="0" width="97.7777778" height="200"></rect>
                <path d="M84.392,36.244 C90.4586667,33.4567556 96.4022222,31.9032 102.222222,31.5835111 L102.222222,57.9062222 C99.2462222,58.3555556 96.1902222,59.1426667 93.0533333,60.2671111 C87.2791111,62.3368889 81.6137778,66.1502222 76.0577778,71.7062222 C66.6884444,81.076 64.836,88.5933333 70.5013333,94.2582222 C73.0071111,96.764 75.6764444,97.5813333 78.5088889,96.7097778 C81.2324444,95.7293333 84.5008889,93.8768889 88.3142222,91.1533333 L103.839111,79.8773333 C108.196889,76.6088889 112.609333,73.94 117.076,71.8697778 C121.434222,69.6906667 125.792,68.3835556 130.149778,67.9475556 C134.616444,67.4031111 138.974667,67.8386667 143.223556,69.2551111 C147.472444,70.6715556 151.612444,73.3951111 155.643556,77.4262222 C164.468,86.2506667 168.008889,96.6551111 166.265778,108.639556 C164.631556,120.514667 157.549778,132.716444 145.020889,145.245333 C135.651556,154.615111 126.064444,161.369778 116.259111,165.509778 C111.417333,167.522667 106.738222,168.856444 102.222222,169.511111 L102.222222,142.462667 C104.866222,141.965778 107.475111,141.259111 110.048889,140.343111 C116.476889,137.837333 122.523556,133.751556 128.188889,128.086222 C132.982222,123.292889 136.032889,118.825778 137.340444,114.685778 C138.538667,110.436889 137.612444,106.787111 134.562222,103.736889 C132.165333,101.34 129.604889,100.632 126.881333,101.612444 C124.048889,102.484 120.725778,104.281333 116.912889,107.005333 L101.224444,118.444444 C96.8666667,121.712889 92.5084444,124.436444 88.1506667,126.615556 C83.684,128.685778 79.2715556,129.938667 74.9137778,130.374222 C70.556,130.810222 66.2524444,130.32 62.0035556,128.903556 C57.7546667,127.487111 53.6146667,124.763556 49.5835556,120.732444 C40.7589333,111.907556 37.2181333,101.612444 38.9612889,89.8462222 C40.7044444,78.08 47.6768889,66.0955556 59.8791111,53.8937778 C68.1591111,45.6137778 76.3302222,39.7306667 84.392,36.244 Z" id="Path" fill="#FFFFFF" mask="url(#mask-2)"></path>
            </g>
        </g>
    </g>
</svg>
